X: 21
T:Humours of Quarrycross
R:jig
B:Cole p.58
Z:The Bridal Jig
Z: John Chambers <jc@eddie.mit.edu> http://eddie.mit.edu/~jc/music/
M:6/8
L:1/8
K:G
|: D | G2G BGB | def gfg | ecA dBG | FAG FED|
| G2G BGB | def gfg | ecA dBG | cAF G2 :|
|: B | Bee edB | def g2a | bag agf | e2e edB |
| Bee edB | def g2a | bag agf | e2e e2 :|
